X: 40791
T: Town Green, The
R: polka
M: 2/4
K: Cmajor
GG/B/ d^c/d/|ed g2|dc c/B/c/d/|ed d/^c/d|
GG/B/ d^c/d/|ed g2|dc A/d/f/a/|gg/g/ g:|
gB/c/ d/c/A/F/|G/B/d/g/ bb|F/A/d/f/ aa|A/d/f/a/ gg|
gB/c/ dc/A/|G/B/d/g/ b2|F/A/d/f/ ag/f/|gg/g/ g:|
G2 cG|BA A^G/A/|GB/d/ fB|dc c/B/c/A/|
GE/G/ cG/c/|BA A/^G/A/B/|GB/d/ fB/d/|ce c:|

